!!!COM: Hugo Wolf
!!!CNT: Deutscher
!!!TXO: Deutsche 
!!!OTL: Nixe Binsefuss
!!!ONM: No. 45
!!!ODT: 1888/
!!!LYR: Moericke
!!!ENC: Brian Bice
!!!YOR: 65 Songs for voice and piano, International Music Company, 1960
!!NB: Vocal melody and text only encoded.
**kern	**silbe
*clefG2	*
*k[]	*
*M3/8	*
=8	=8
8r	.
8r	.
{8e	{Des
=9	=9
4a	Was-
8cc	-ser-
=10	=10
4b	-manns
8e	sein
=11	=11
4a	To2ch-
8cc	-ter-
=12	=12
4.ee}	-lein}
=13	=13
{8dd	{tanzt
8ee	auf
8ff	dem
=14	=14
(8ee	Eis
8dd)	|
8cc	im
=15	=15
4cc#	Voll-
8ff#	-mond-
=16	=16
4ff#}	-schein,}
{8b	{sie
=17	=17
4ee	singt
8gg	und-
=18	=18
8ff#	-la-
8r	.
8b	-chet
=19	=19
4ee	son-
8gg	-der
=20	=20
4.ff#}	Scheu}
=21	=21
{8b	{wohl
8b	an
8cc#	des
=22	=22
4dd	Fi-
8ee	-schers
=23	=23
4.ffn	Haus
=24	=24
4.ff	vor-
=25	=25
[4.ee	-bei.
=26	=26
4.ee_	|
=27	=27
4.ee_	|
=28	=28
4.ee]}	|}
=36	=36
*M2/4	*
4r	.
8r	.
{8e	{"Ich
=37	=37
8a	bin
8a	die
8cc	Jung-
8cc	-fer
=38	=38
8.ee	Bin-
16ff	-se-
4ff}	-fuss,}
=40	=40
4r	.
8r	.
{8e	{und
=41	=41
8a	mei-
8a	-ne
8cc	Fisch'
8a	wohl
=42	=42
8.ee	hu2-
16ff	-ten
4ff}	muss,}
=44	=44
4r	.
12r	.
{12ee	{mei-
12ee	-ne
=45	=45
8ee-	Fisch'
8dd	die
8cc	sind
8ee-	im
=46	=46
8dd	Ka-
8a}	-sten,}
8r	.
{8dd	{sie
=47	=47
8ee-	hab-
8dd	-en
8cc	kal-
8ee-	-te
=48	=48
8dd	Fa-
8a}	-sten;}
8r	.
{8ff#	{von
=49	=49
8ffn	Bo2h-
8dd	-mer-
8b-	-glas
8cc#	mein
=50	=50
8dd	Ka-
8b-	-sten
8g}	ist,}
{8a	{da
=51	=51
8b-	za2hl'
8cc	ich
8dd	sie
8ee	zu
=52	=52
4ff	je-
4ee	-der
=53	=53
[2dd	Frist.
=54	=54
4dd]}	|}
4r	.
=56	=56
4r	.
8r	.
{8ff#	{Gelt,
=57	=57
*k[f#c#g#]	*
8.b	Fi-
16b	-scher-
8b	-matz?
8ff#	gelt,
=58	=58
8.b	al-
16b	-ter
8b}	Tropf,}
{8ddn	{dir
=59	=59
8g#	will
8b	der
8e	Win-
8dd	-ter
=60	=60
8cc#	nicht
8a	in
4ee}	Kopf?}
=61	=61
{8b#	{Komm'
16b#	mir
16b#	mit
8b#	dei-
8dd#	-nen
=62	=62
8cc#	Net-
8ee}	-zen!}
8r	.
{8cc#	{die
=63	=63
8.b#	will
16b#	ich
8b#	scho2n
8dd#	zer-
=64	=64
8cc#	-fet-
8ee}	-zen!}
4r	.
=67	=67
4r	.
8r	.
{8cc#	{Dein
=68	=68
8b	Ma2gd-
8ee	-lein
8ee	zwar
8dd	ist
=69	=69
8cc#	fromm
8ee#	und
8ee#}	gut,}
{8cc#	{ihr
=70	=70
8b	Schatz
8een	ein
8een	bra-
8dd	-ves
=71	=71
8.cc#	Ja2-
16g#	-ger-
4g#}	-blut.}
=72	=72
4r	.
8r	.
{8b	{Drum
=73	=73
8a#	ha2ng'
8cc#	ich
8f#	ihr,
8g#	zum
=74	=74
8a#	Hoch-
8cc#	-zeits-
8f#}	-strauss,}
{8g#	{ein
=75	=75
8a#	schil-
8cc#	-fen
8dd#	Kra2nz-
(16cc#	-lein
16b)	|
=76	=76
8a#	vor
8f#	das
8cc#}	Haus,}
{8b	{und
=77	=77
8a#	ei-
8cc#	-nen
8f#	Hecht,
8g#	von
=78	=78
8a#	Sil-
8cc#	-ber
8f#}	schwer,}
{8g#	{er
=79	=79
8an	stammt
8b	von
8cc	Ko2-
8dd#	-nig
=80	=80
8.ee	Ar-
16e	-tus
8e}	her,}
8r	.
=81	=81
4r	.
8r	.
{8ee	{ein
=82	=82
*k[]	*
8ee-	Zwer-
8dd	-gen
8cc	Gold-
8ee-	-schmieds
=83	=83
8.dd	Mei-
16ff#	-ster-
8ff#}	-stu2ck,}
{8dd	{wer's
=84	=84
8ee-	hat,
8dd	dem
8cc	bringt
8ee-	es
=85	=85
8.dd	ei-
16ff#	-tel
8ff#}	Glu2ck:}
{8f#	{er
=86	=86
8fn	la2sst
8fn	sich
8b-	schup-
8b-	-pen
=87	=87
8dd	Jahr
8dd	fu2r
8ee}	Jahr,}
{8ee	{da
=88	=88
8ff	sind's
8dd	fu2nf-
8bb-	-hun-
8dd	-dert
=89	=89
4ff	Gro2sch-
4ee	-lein
=90	=90
[2dd	bar.
=91	=91
2dd_	|
=92	=92
2dd_	|
=93	=93
4dd]}	|}
4r	.
=102	=102
*M3/8	*
8r	.
8r	.
{8ee	{A-
=103	=103
4ff	-de,
8ff	mein
=104	=104
4ee	Kind!
8cc	A-
=105	=105
4cc#	-de
8ff#	fu2r
=106	=106
4.ff#}	heut'!}
=110	=110
8r	.
8r	.
{8b	{Der
=111	=111
4b	Mor-
8cc#	-gen-
=112	=112
4dd	-hahn
8ee	im
=113	=113
4.ff	Dor-
=114	=114
4.ff	-fe
=115	=115
[4.ee	schreit."
=116	=116
4.ee_	|
=117	=117
4.ee_	|
=118	=118
4.ee]}	|}
*-	*-
